X: 1
T: Picnic Reel
O: trad.
R: reel
Z: 2012 John Chambers <jc:trillian.mit.edu>
S: Printed page for a fiddle class by Ed Pearlman
M: C|
L: 1/8
K: A
|:\
A,2A,C EA,CE | ACEA c2BA | "D"FAEA "Bm"ceaf | "E7"ecBA FAEC |
A,2A,C EA,CE | ACEA c2BA | "D"FAEA "Bm"cefe |1 "E7"ceBc "A"A2A2 :|2"E7"ceBc "A"A2 ||
|: E2 |\
"A"A2Ac BAFE | agaf ecBA | "D"dfce "Bm"BcAc | "E7"dBcA BFFA |
"A"A,2CE AEAc | "D"dBcA "Bm"BFFA | "A"EAcf "D"ecBA | "E(m)"EF=GB | "A"A2 :|
